X: 20754
T: BUTCHER'S ROW
C:
%R: reel
B: Elias Howe "The Musician's Companion" 1843 p.75 #1
S: http://imslp.org/wiki/The_Musician's_Companion_(Howe,_Elias)
Z: 2015 John Chambers <jc:trillian.mit.edu>
M: C
L: 1/8
K: G
% - - - - - - - - - - - - - - - - - - - - - - - - -
A2 |\
B2(dB) G2d2 | egfa gfed | BcdB G2d2 | edcB B2(BA) |\
BcdB G2d2 | egfa gfed | gfge edcB | BcAB G2G2 :|
|:\
g2(ga) b2b2 | abag e2a2 | gfed efge | dBAG B2G2 |\
GFGE EDEG | EGBd gfed | gfge edcB | BcAB G2G2 :|
% - - - - - - - - - - - - - - - - - - - - - - - - -

%%sep 1 1 500

